src/pos-icons/package-variant-closed.svg

<svg height="24" viewBox="0 0 24 24" width="24" xmlns="http://www.w3.org/2000/svg"><path d="m21 16.5c0 .38-.21.71-.53.88l-7.9 4.44c-.16.12-.36.18-.57.18s-.41-.06-.57-.18l-7.9-4.44c-.32-.17-.53-.5-.53-.88v-9c0-.38.21-.71.53-.88l7.9-4.44c.16-.12.36-.18.57-.18s.41.06.57.18l7.9 4.44c.32.17.53.5.53.88zm-9-12.35-1.89 1.07 5.89 3.39 1.96-1.11zm-5.96 3.35 5.96 3.35 1.96-1.1-5.88-3.4zm-1.04 8.41 6 3.38v-6.71l-6-3.37zm14 0v-6.7l-6 3.37v6.71z"/></svg>

<?xml version="1.0" encoding="UTF-8"?><!DOCTYPE svg PUBLIC "-//W3C//DTD SVG 1.1//EN" "http://www.w3.org/Graphics/SVG/1.1/DTD/svg11.dtd"><svg xmlns="http://www.w3.org/2000/svg" xmlns:xlink="http://www.w3.org/1999/xlink" version="1.1" id="mdi-package-variant-closed" width="24" height="24" viewBox="0 0 24 24"><path d="M21,16.5C21,16.88 20.79,17.21 20.47,17.38L12.57,21.82C12.41,21.94 12.21,22 12,22C11.79,22 11.59,21.94 11.43,21.82L3.53,17.38C3.21,17.21 3,16.88 3,16.5V7.5C3,7.12 3.21,6.79 3.53,6.62L11.43,2.18C11.59,2.06 11.79,2 12,2C12.21,2 12.41,2.06 12.57,2.18L20.47,6.62C20.79,6.79 21,7.12 21,7.5V16.5M12,4.15L10.11,5.22L16,8.61L17.96,7.5L12,4.15M6.04,7.5L12,10.85L13.96,9.75L8.08,6.35L6.04,7.5M5,15.91L11,19.29V12.58L5,9.21V15.91M19,15.91V9.21L13,12.58V19.29L19,15.91Z" /></svg>
